svg/other/injection_line.svg

<svg xmlns="http://www.w3.org/2000/svg" width="24" height="24" viewBox="0 0 24 24"><g fill="none" fill-rule="evenodd"><path d="M24,0 L24,24 L0,24 L0,0 L24,0 Z M12.5935,23.2578 L12.5819,23.2595 L12.5109,23.295 L12.4919,23.2987 L12.4767,23.295 L12.4057,23.2595 C12.3958,23.2564 12.387,23.259 12.3821,23.2649 L12.378,23.2758 L12.3609,23.7031 L12.3659,23.7235 L12.3769,23.7357 L12.4805,23.8097 L12.4953,23.8136 L12.5071,23.8097 L12.6107,23.7357 L12.6233,23.7197 L12.6267,23.7031 L12.6096,23.2758 C12.6076,23.2657 12.601,23.2593 12.5935,23.2578 Z M12.8584,23.1453 L12.8445,23.1473 L12.6598,23.2397 L12.6499,23.2499 L12.6472,23.2611 L12.6651,23.6906 L12.6699,23.7034 L12.6784,23.7105 L12.8793,23.8032 C12.8914,23.8069 12.9022,23.803 12.9078,23.7952 L12.9118,23.7812 L12.8777,23.1665 C12.8753,23.1546 12.8674,23.147 12.8584,23.1453 Z M12.143,23.1473 C12.1332,23.1424 12.1222,23.1453 12.1156,23.1526 L12.1099,23.1665 L12.0758,23.7812 C12.0751,23.7927 12.0828,23.8019 12.0926,23.8046 L12.1083,23.8032 L12.3092,23.7105 L12.3186,23.7024 L12.3225,23.6906 L12.3404,23.2611 L12.3372,23.2485 L12.3278,23.2397 L12.143,23.1473 Z"/><path fill="#09244B" d="M17.3034,3.16106 L20.8389,6.69659 C21.2294,7.08712 21.2294,7.72028 20.8389,8.1108 C20.4484,8.50131 19.8153,8.50133 19.4247,8.11087 L18.0106,9.52502 L19.7782,11.2927 C20.1688,11.6832 20.1688,12.3164 19.7782,12.7069 C19.3877,13.0974 18.7545,13.0974 18.364,12.7069 L17.6571,12 L12.0002,17.657 C10.8286,18.8285 8.92908,18.8285 7.75751,17.657 L4.63606,20.7782 C4.24554,21.1687 3.61237,21.1687 3.22185,20.7782 C2.83132,20.3877 2.83132,19.7545 3.22185,19.364 L6.34319,16.2427 C5.17172,15.0711 5.17176,13.1717 6.3433,12.0001 L12.0003,6.34314 L11.293,5.63582 C10.9024,5.24529 10.9024,4.61213 11.293,4.2216 C11.6835,3.83108 12.3166,3.83108 12.7072,4.2216 L14.4749,5.98935 L15.8891,4.5752 C15.4986,4.18466 15.4986,3.55156 15.8891,3.16106 C16.2797,2.77053 16.9128,2.77053 17.3034,3.16106 Z M13.4144,7.75748 L12.0002,9.17163 L12.7071,9.87849 C13.0976,10.269 13.0976,10.9022 12.7071,11.2927 C12.3165,11.6832 11.6834,11.6832 11.2929,11.2927 L10.586,10.5858 L9.87875,11.2931 L10.5857,12.0001 C10.9763,12.3906 10.9763,13.0238 10.5857,13.4143 C10.1952,13.8048 9.56204,13.8048 9.17152,13.4143 L8.46453,12.7073 L7.75751,13.4143 C7.36699,13.8049 7.36699,14.438 7.75751,14.8285 L9.17172,16.2428 C9.56225,16.6333 10.1954,16.6333 10.5859,16.2428 L16.2428,10.5859 L13.4144,7.75748 Z M17.3033,5.98941 L15.8891,7.40356 L16.5964,8.11081 L18.0105,6.69666 L17.3033,5.98941 Z"/></g></svg>

<svg xmlns="http://www.w3.org/2000/svg" width="24" height="24"><g fill="none" fill-rule="evenodd"><path d="M24 0v24H0V0zM12.594 23.258l-.012.002-.071.035-.02.004-.014-.004-.071-.036c-.01-.003-.019 0-.024.006l-.004.01-.017.428.005.02.01.013.104.074.015.004.012-.004.104-.074.012-.016.004-.017-.017-.427c-.002-.01-.009-.017-.016-.018m.264-.113-.014.002-.184.093-.01.01-.003.011.018.43.005.012.008.008.201.092c.012.004.023 0 .029-.008l.004-.014-.034-.614c-.003-.012-.01-.02-.02-.022m-.715.002a.023.023 0 0 0-.027.006l-.006.014-.034.614c0 .012.007.02.017.024l.015-.002.201-.093.01-.008.003-.011.018-.43-.003-.012-.01-.01z"/><path fill="#09244B" d="m17.303 3.161 3.536 3.536a1 1 0 0 1-1.414 1.414L18.01 9.525l1.767 1.768a1 1 0 1 1-1.414 1.414L17.657 12 12 17.657a3 3 0 0 1-4.242 0l-3.122 3.121a1 1 0 0 1-1.414-1.414l3.121-3.121a3 3 0 0 1 0-4.243L12 6.343l-.707-.707a1 1 0 1 1 1.414-1.414l1.768 1.767 1.414-1.414a1 1 0 1 1 1.414-1.414m-3.889 4.596L12 9.172l.707.706a1 1 0 0 1-1.414 1.415l-.707-.707-.707.707.707.707a1 1 0 1 1-1.414 1.414l-.707-.707-.707.707a1 1 0 0 0 0 1.415l1.414 1.414a1 1 0 0 0 1.414 0l5.657-5.657zm3.89-1.768-1.415 1.415.707.707 1.415-1.414z"/></g></svg>
